src/lib/packages/icons/src/assets/line/chat-text-plus.svg

<svg width="24" height="24" viewBox="0 0 24 24" fill="none" xmlns="http://www.w3.org/2000/svg">
<path d="M12.751 20.998C12.751 21.412 12.415 21.748 12.001 21.748C10.601 21.748 9.19204 21.437 7.92604 20.848C7.67804 20.73 7.36804 20.721 7.05104 20.823L4.56203 21.659C4.37803 21.72 4.1909 21.75 4.0049 21.75C3.5479 21.75 3.10408 21.57 2.76809 21.234C2.29408 20.761 2.13108 20.074 2.34108 19.442L3.1819 16.941C3.2799 16.634 3.27102 16.326 3.15602 16.083C2.56402 14.81 2.25392 13.4 2.25392 12C2.25392 6.625 6.62697 2.25098 12.002 2.25098C17.378 2.25098 21.751 6.624 21.751 12C21.751 12.414 21.415 12.75 21.001 12.75C20.587 12.75 20.251 12.414 20.251 12C20.251 7.452 16.551 3.75098 12.002 3.75098C7.45397 3.75098 3.75392 7.451 3.75392 12C3.75392 13.183 4.01693 14.374 4.51393 15.444C4.78993 16.025 4.82591 16.724 4.60891 17.407L3.76491 19.918C3.72291 20.043 3.78712 20.132 3.82912 20.174C3.87112 20.216 3.96096 20.28 4.08596 20.238L6.584 19.399C7.278 19.178 7.97896 19.212 8.56496 19.493C9.62796 19.987 10.819 20.25 12.002 20.25C12.415 20.248 12.751 20.583 12.751 20.998ZM21 17.75H19.25V16C19.25 15.586 18.914 15.25 18.5 15.25C18.086 15.25 17.75 15.586 17.75 16V17.75H16C15.586 17.75 15.25 18.086 15.25 18.5C15.25 18.914 15.586 19.25 16 19.25H17.75V21C17.75 21.414 18.086 21.75 18.5 21.75C18.914 21.75 19.25 21.414 19.25 21V19.25H21C21.414 19.25 21.75 18.914 21.75 18.5C21.75 18.086 21.414 17.75 21 17.75ZM8.00002 9.25C7.58602 9.25 7.25002 9.586 7.25002 10C7.25002 10.414 7.58602 10.75 8.00002 10.75H16C16.414 10.75 16.75 10.414 16.75 10C16.75 9.586 16.414 9.25 16 9.25H8.00002ZM13 13.25H8.00002C7.58602 13.25 7.25002 13.586 7.25002 14C7.25002 14.414 7.58602 14.75 8.00002 14.75H13C13.414 14.75 13.75 14.414 13.75 14C13.75 13.586 13.414 13.25 13 13.25Z" fill="currentColor"/>
</svg>

<svg xmlns="http://www.w3.org/2000/svg" width="24" height="24" fill="none"><path fill="currentColor" d="M12.751 20.998a.75.75 0 0 1-.75.75c-1.4 0-2.809-.311-4.075-.9-.248-.118-.558-.127-.875-.025l-2.489.836a1.745 1.745 0 0 1-1.794-.425 1.743 1.743 0 0 1-.427-1.792l.84-2.501c.099-.307.09-.615-.025-.858A9.74 9.74 0 0 1 2.254 12c0-5.375 4.373-9.749 9.748-9.749 5.376 0 9.749 4.373 9.749 9.749a.75.75 0 0 1-1.5 0c0-4.548-3.7-8.249-8.249-8.249-4.548 0-8.248 3.7-8.248 8.249a8.23 8.23 0 0 0 .76 3.444c.276.581.312 1.28.095 1.963l-.844 2.511a.242.242 0 0 0 .064.256.243.243 0 0 0 .257.064l2.498-.839c.694-.221 1.395-.187 1.981.094a8.219 8.219 0 0 0 3.437.757.746.746 0 0 1 .749.748ZM21 17.75h-1.75V16a.75.75 0 0 0-1.5 0v1.75H16a.75.75 0 0 0 0 1.5h1.75V21a.75.75 0 0 0 1.5 0v-1.75H21a.75.75 0 0 0 0-1.5ZM8 9.25a.75.75 0 0 0 0 1.5h8a.75.75 0 0 0 0-1.5H8Zm5 4H8a.75.75 0 0 0 0 1.5h5a.75.75 0 0 0 0-1.5Z"/></svg>
